X: 31455
T: Paddy Taylor's
R: jig
M: 6/8
K: Dmixolydian
|:B|A^GA =gfg|a^ga ef=g|~f^ef g=ed|cAG EFG|
~A3 ~g3|~a3 ee/f/g|f2 d cAG|Adc d2:|
|:e|fed edc|d2 d cAG|A^GA DF/=G/A|fed e^cA|
fed e2 c|ded cde|fed cAG|Ad^c d2:|

